X: 20
T:Brudsmarsch efter Byss-Calle No. 2
M:4/4
L:1/8
C:Trad. Swedish
S:Vsen
K:G
:G>AA>B B>Gc>B|(3A/2B/2A/2) G A>B (3A/2B/2A/2)G A>B|E>FE>FG>EE>F|G>EA>F
D>D
D2:|
:E>CG>E D>B,G>D|C>A,E>A,B,2D2|E>CG>E D>B,G>D|C>A,E>A,B,2D2|
G>D A<D G2A>B|cccc cBcA|c>BA>G F>AD>F|G4:|
